X:1
T:Waterford, 11.11.11.11
T:Waterford, 11.11.11.11
T:William Vincent Wallace arr. George N. Rockwell
T:Public Domain Courtesy of the Cyber Hymnal™
C:William Vincent Wallace arr. George N. Rockwell
Z:Public Domain
Z:Courtesy of the Cyber Hymnal™
%%score ( 1 2 ) ( 3 4 )
L:1/8
M:4/4
K:Eb
V:1 treble 
V:2 treble 
V:3 bass 
V:4 bass 
V:1
 [EB]2 | [EB]4 [EG]2 [Ge]2 | B4 [EG]2 [EA]2 | [DG]4 [DF]2 [Dc]2 | (c4 B2) [EB]2 | %5
 [EB]4 [EG]2 [Ge]2 | B4 [EG]2 [EA]2 | [DG]4 [DF]3 [DG] | E6 [EG]2 | [Gc]4 [Ad]2 [Ge]2 | %10
 [Fd]4 [F=B]2 [FG]2 | ([Ee]2 [Gc]2) [Fd]2 [F=B]2 | [Ec]6 [FB]2 | [EB]4 [EG]2 [Ge]2 | %14
 B4 [EG]2 [EA]2 | [DG]4 [DF]3 [DG] | E6 |] %17
V:2
 x2 | x8 | (E2 D2) x4 | x8 | E6 x2 | x8 | (E2 D2) x4 | x8 | E6 x2 | x8 | x8 | x8 | x8 | x8 | %14
 (E2 D2) x4 | x8 | E6 |] %17
V:3
 [E,G,]2 | (G,2 B,2) [E,E]2 [E,B,]2 | ([E,G,]2 [F,A,]2) [G,B,]2 [F,C]2 | B,4 [A,B,]2 [F,A,]2 | %4
 (A,4 G,2) [E,G,]2 | (G,2 B,2) [E,E]2 [E,B,]2 | ([E,G,]2 [F,A,]2) [G,B,]2 [F,C]2 | %7
 B,4 [B,,A,]3 [B,,B,] | [E,G,]6 [C,G,]2 | (G,2 C2) [F,C]2 [G,C]2 | [G,=B,]4 [G,D]2 [G,B,]2 | %11
 C4 [G,=B,]2 [G,D]2 | (C2 G,4) [D,A,]2 | G,2 B,2 [E,E]2 [E,B,]2 | %14
 ([E,G,]2 [F,A,]2) [G,B,]2 [F,C]2 | B,4 [B,,A,]3 [B,,B,] | [E,G,]6 |] %17
V:4
 x2 | E,4 x4 | x8 | B,4 x4 | E,6 x2 | E,4 x4 | x8 | B,4 x4 | x8 | E,4 x4 | x8 | (C,2 E,2) x4 | %12
 C,6 x2 | E,4 x4 | x8 | B,4 x4 | x6 |] %17

